X: 34457
T: Rideau Lake Jig, The
R: slide
M: 12/8
K: Dmajor
|:[CE]|D2 F AFd f2 d A3|G2 F EFG B2 A F2 E|
D2 F A2 d f2 d A2 F|GBA GFE D3 D2:|
|:[Ac]|d2 f a2 a ba^g a3|g2 f ecA f2 d cBA|
d2 f a2 a ba^g a2 f|gfg efe d3- d2:|

